app/[lang]/(home)/(new-home)/assets/github.svg

<svg width="17" height="17" viewBox="0 0 17 17" fill="none" xmlns="http://www.w3.org/2000/svg">
<g clip-path="url(#clip0_565_28981)">
<path d="M8.46611 2.11096C4.78277 2.11096 1.79944 5.0943 1.79944 8.77763C1.79868 10.1771 2.23865 11.5414 3.05692 12.6767C3.87518 13.8121 5.0302 14.661 6.35811 15.103C6.69144 15.161 6.81611 14.961 6.81611 14.7856C6.81611 14.6276 6.80744 14.103 6.80744 13.5443C5.13277 13.853 4.69944 13.1363 4.56611 12.761C4.49077 12.569 4.16611 11.9776 3.88277 11.819C3.64944 11.6943 3.31611 11.3856 3.87411 11.3776C4.39944 11.369 4.77411 11.861 4.89944 12.061C5.49944 13.069 6.45811 12.7856 6.84077 12.611C6.89944 12.1776 7.07411 11.8863 7.26611 11.7196C5.78277 11.553 4.23277 10.9776 4.23277 8.42763C4.23277 7.7023 4.49077 7.10296 4.91611 6.63563C4.84944 6.46896 4.61611 5.78563 4.98277 4.86896C4.98277 4.86896 5.54077 4.6943 6.81611 5.55296C7.35881 5.40234 7.91955 5.32652 8.48277 5.32763C9.04944 5.32763 9.61611 5.4023 10.1494 5.5523C11.4241 4.68563 11.9828 4.86963 11.9828 4.86963C12.3494 5.7863 12.1161 6.46963 12.0494 6.6363C12.4741 7.10296 12.7328 7.6943 12.7328 8.42763C12.7328 10.9863 11.1748 11.553 9.69144 11.7196C9.93277 11.9276 10.1414 12.3276 10.1414 12.953C10.1414 13.8443 10.1328 14.561 10.1328 14.7863C10.1328 14.961 10.2581 15.169 10.5914 15.1023C11.9148 14.6555 13.0647 13.805 13.8794 12.6704C14.694 11.5358 15.1324 10.1744 15.1328 8.77763C15.1328 5.0943 12.1494 2.11096 8.46611 2.11096Z" fill="white"/>
</g>
<defs>
<clipPath id="clip0_565_28981">
<rect width="16" height="16" fill="white" transform="translate(0.46582 0.777344)"/>
</clipPath>
</defs>
</svg>

<svg xmlns="http://www.w3.org/2000/svg" fill="none" viewBox="0 0 17 17">
  <g clip-path="url(#a)">
    <path
      fill="#fff"
      d="M8.47 2.11a6.66 6.66 0 0 0-2.11 13c.33.05.46-.15.46-.32l-.01-1.25c-1.68.31-2.11-.4-2.24-.78-.08-.2-.4-.78-.69-.94-.23-.13-.56-.43 0-.44.52-.01.9.48 1.02.68.6 1 1.56.73 1.94.55.06-.43.23-.72.43-.89-1.49-.17-3.04-.74-3.04-3.3 0-.72.26-1.32.69-1.78a2.4 2.4 0 0 1 .06-1.77s.56-.18 1.84.68a6.19 6.19 0 0 1 3.33 0c1.27-.86 1.83-.68 1.83-.68.37.92.14 1.6.07 1.77.42.46.68 1.05.68 1.79 0 2.56-1.56 3.12-3.04 3.29.24.2.45.6.45 1.23v1.84c0 .17.12.38.45.31A6.68 6.68 0 0 0 8.47 2.11Z"
    />
  </g>
  <defs>
    <clipPath id="a"><path fill="#fff" d="M.47.78h16v16h-16z" /></clipPath>
  </defs>
</svg>
